sources/images/svg/seach.svg

<?xml version="1.0" encoding="UTF-8" standalone="no"?>
<svg width="15px" height="15px" viewBox="0 0 15 15" version="1.1" xmlns="http://www.w3.org/2000/svg" xmlns:xlink="http://www.w3.org/1999/xlink" xmlns:sketch="http://www.bohemiancoding.com/sketch/ns">
    <!-- Generator: Sketch 3.0.4 (8053) - http://www.bohemiancoding.com/sketch -->
    <title>seach</title>
    <desc>Created with Sketch.</desc>
    <defs></defs>
    <g id="Page-1" stroke="none" stroke-width="1" fill="none" fill-rule="evenodd" sketch:type="MSPage">
        <g id="Landscape-Retina" sketch:type="MSArtboardGroup" transform="translate(-1053.000000, -750.000000)" fill="#0045D2">
            <g id="seach" sketch:type="MSLayerGroup" transform="translate(1053.000000, 750.000000)">
                <path d="M14.8441558,12.5727273 L11.5402597,9.22597403 C12.0779221,8.28701299 12.3584416,7.24285714 12.3584416,6.19090909 C12.3584416,2.77792208 9.58441558,0 6.17922078,0 C2.77402597,0 0,2.77792208 0,6.19090909 C0,9.6038961 2.77402597,12.3818182 6.17922078,12.3818182 C7.26623377,12.3818182 8.34155844,12.0818182 9.3,11.5090909 L12.5883117,14.8441558 C12.6623377,14.9181818 12.7675325,14.9649351 12.8727273,14.9649351 C12.9779221,14.9649351 13.0831169,14.9220779 13.1571429,14.8441558 L14.8441558,13.1376623 C15,12.9779221 15,12.7285714 14.8441558,12.5727273 L14.8441558,12.5727273 Z M6.17922078,2.41168831 C8.25974026,2.41168831 9.95064935,4.10649351 9.95064935,6.19090909 C9.95064935,8.27532468 8.25974026,9.97012987 6.17922078,9.97012987 C4.0987013,9.97012987 2.40779221,8.27532468 2.40779221,6.19090909 C2.40779221,4.10649351 4.0987013,2.41168831 6.17922078,2.41168831 L6.17922078,2.41168831 Z" id="Imported-Layers" sketch:type="MSShapeGroup"></path>
            </g>
        </g>
    </g>
</svg>

<svg width="15" height="15" viewBox="0 0 15 15" xmlns="http://www.w3.org/2000/svg"><path d="M14.844 12.573L11.54 9.226c.538-.94.818-1.983.818-3.035 0-3.41-2.774-6.19-6.18-6.19C2.775 0 0 2.778 0 6.19c0 3.414 2.774 6.192 6.18 6.192 1.086 0 2.162-.3 3.12-.873l3.288 3.333c.074.074.18.12.285.12.105 0 .21-.042.284-.12l1.687-1.706c.156-.16.156-.41 0-.565zM6.18 2.413c2.08 0 3.77 1.693 3.77 3.778S8.26 9.97 6.18 9.97 2.407 8.275 2.407 6.19c0-2.084 1.69-3.778 3.77-3.778z" id="Imported-Layers" fill="#0045D2" fill-rule="evenodd"/></svg>
